dist/svg/asterisk.svg

<!-- Generated by Trend Micro Style Portal -->
<svg version="1.1" xmlns="http://www.w3.org/2000/svg" width="16" height="16" viewBox="0 0 16 16">
  <title>asterisk</title>
  <path fill="rgb(34,34,34)" d="M8.71 7h2.29v1h-2.29l1.62 1.62-0.71 0.71-1.62-1.62v2.29h-1v-2.29l-1.62 1.62-0.71-0.71 1.62-1.62h-2.29v-1h2.29l-1.62-1.62 0.71-0.71 1.62 1.62v-2.29h1v2.29l1.62-1.62 0.71 0.71-1.62 1.62z"></path>
</svg>

<svg width="16" height="16" viewBox="0 0 16 16" fill="rgb(34, 34, 34)" xmlns="http://www.w3.org/2000/svg"><title>asterisk</title><path d="M8.71 7H11V8H8.71L10.33 9.62L9.62 10.33L8 8.71V11H7V8.71L5.38 10.33L4.67 9.62L6.29 8H4V7H6.29L4.67 5.38L5.38 4.67L7 6.29V4H8V6.29L9.62 4.67L10.33 5.38L8.71 7Z" fill="rgb(34, 34, 34)" fill-opacity="1.00"/></svg>
